X:1
T:Nillen, 66.66
T:Nillen, 66.66
T:Sabbath Hymn  & Tune Book, 1859
T:Public Domain Courtesy of the Cyber Hymnal™
C:Sabbath Hymn  & Tune Book, 1859
Z:Public Domain
Z:Courtesy of the Cyber Hymnal™
%%score ( 1 2 ) ( 3 4 )
L:1/8
Q:1/4=110
M:4/4
K:Ab
V:1 treble 
V:2 treble 
V:3 bass 
V:4 bass 
V:1
 [CE]4 | [EA]2 [EB]2 [Ec]2 [EB]2 | [EA]4 [CE]4 | [DF]2 [DG]2 [EA]2 [Ec]2 | [EB]4 E4 | %5
 [EA]2 [EB]2 [Ec]2 [Fd]2 | [Ee]4 [EB]4 | [Ec]2 [Fd]2 [Ec]2 [DB]2 | [CA]4 |] %9
V:2
 x4 | x8 | x8 | x8 | x4 E4 | x8 | x8 | x8 | x4 |] %9
V:3
 [A,,A,]4 | [C,A,]2 [E,G,]2 A,2 [E,G,]2 | [C,A,]4 [A,,A,]4 | [D,A,]2 [B,,B,]2 [C,A,]2 [A,,A,]2 | %4
 [E,G,]4 [E,G,]4 | [C,A,]2 [E,G,]2 A,2 [F,A,]2 | [C,A,]4 [E,G,]4 | A,2 [D,A,]2 [E,A,]2 [E,G,]2 | %8
 [A,,A,]4 |] %9
V:4
 x4 | x4 A,2 x2 | x8 | x8 | x8 | x4 A,2 x2 | x8 | A,2 x6 | x4 |] %9

